hero/solid/cube-transparent.svg

<svg width="24" height="24" viewBox="0 0 24 24" fill="none" xmlns="http://www.w3.org/2000/svg">
<path fill-rule="evenodd" clip-rule="evenodd" d="M11.6221 1.60217C11.8556 1.46594 12.1444 1.46594 12.3779 1.60217L14.6279 2.91467C14.9857 3.12338 15.1065 3.58261 14.8978 3.9404C14.6891 4.29819 14.2299 4.41904 13.8721 4.21033L12 3.11828L10.1279 4.21033C9.77011 4.41904 9.31088 4.29819 9.10217 3.9404C8.89346 3.58261 9.01431 3.12338 9.3721 2.91467L11.6221 1.60217ZM5.89783 5.8096C6.10654 6.16739 5.98569 6.62662 5.6279 6.83533L4.48848 7.5L5.6279 8.16467C5.98569 8.37338 6.10654 8.83261 5.89783 9.1904C5.68912 9.54819 5.22989 9.66904 4.8721 9.46033L3.75 8.80578V9.75C3.75 10.1642 3.41421 10.5 3 10.5C2.58579 10.5 2.25 10.1642 2.25 9.75V7.5C2.25 7.23325 2.39168 6.98657 2.6221 6.85217L4.8721 5.53967C5.22989 5.33096 5.68912 5.45181 5.89783 5.8096ZM18.1022 5.8096C18.3109 5.45181 18.7701 5.33096 19.1279 5.53967L21.3779 6.85217C21.6083 6.98657 21.75 7.23325 21.75 7.5V9.75C21.75 10.1642 21.4142 10.5 21 10.5C20.5858 10.5 20.25 10.1642 20.25 9.75V8.80578L19.1279 9.46033C18.7701 9.66904 18.3109 9.54819 18.1022 9.1904C17.8935 8.83261 18.0143 8.37338 18.3721 8.16467L19.5115 7.5L18.3721 6.83533C18.0143 6.62662 17.8935 6.16739 18.1022 5.8096ZM9.10217 11.0596C9.31088 10.7018 9.77011 10.581 10.1279 10.7897L12 11.8817L13.8721 10.7897C14.2299 10.581 14.6891 10.7018 14.8978 11.0596C15.1065 11.4174 14.9857 11.8766 14.6279 12.0853L12.75 13.1808V15C12.75 15.4142 12.4142 15.75 12 15.75C11.5858 15.75 11.25 15.4142 11.25 15V13.1808L9.3721 12.0853C9.01431 11.8766 8.89346 11.4174 9.10217 11.0596ZM3 13.5C3.41421 13.5 3.75 13.8358 3.75 14.25V16.0692L5.6279 17.1647C5.98569 17.3734 6.10654 17.8326 5.89783 18.1904C5.68912 18.5482 5.22989 18.669 4.8721 18.4603L2.6221 17.1478C2.39168 17.0134 2.25 16.7668 2.25 16.5V14.25C2.25 13.8358 2.58579 13.5 3 13.5ZM21 13.5C21.4142 13.5 21.75 13.8358 21.75 14.25V16.5C21.75 16.7668 21.6083 17.0134 21.3779 17.1478L19.1279 18.4603C18.7701 18.669 18.3109 18.5482 18.1022 18.1904C17.8935 17.8326 18.0143 17.3734 18.3721 17.1647L20.25 16.0692V14.25C20.25 13.8358 20.5858 13.5 21 13.5ZM12 18.75C12.4142 18.75 12.75 19.0858 12.75 19.5V20.4442L13.8721 19.7897C14.2299 19.581 14.6891 19.7018 14.8978 20.0596C15.1065 20.4174 14.9857 20.8766 14.6279 21.0853L12.3779 22.3978C12.1444 22.5341 11.8556 22.5341 11.6221 22.3978L9.3721 21.0853C9.01431 20.8766 8.89346 20.4174 9.10217 20.0596C9.31088 19.7018 9.77011 19.581 10.1279 19.7897L11.25 20.4442V19.5C11.25 19.0858 11.5858 18.75 12 18.75Z" fill="#0F172A"/>
</svg>

<svg viewBox="0 0 24 24" xmlns="http://www.w3.org/2000/svg"><path fill-rule="evenodd" d="M11.622 1.602v0c.23-.14.52-.14.75-.001l2.25 1.31v0c.35.21.46.67.24 1.03 -.22.33-.65.45-1 .26l-1.88-1.1 -1.88 1.092v-.001c-.36.21-.82.1-1.04-.25 -.22-.36-.11-.82.24-1.04 .01-.01.02-.02.03-.02l2.25-1.313ZM5.89 5.8v0c.2.35.08.81-.27 1.02l-1.14.665 1.14.66H5.62c.36.19.49.65.29 1.01s-.66.49-1.02.29c-.02-.01-.03-.02-.04-.02l-1.13-.66v.94 0c0 .41-.34.75-.75.75 -.42 0-.75-.34-.75-.75V7.45v0c-.01-.27.14-.52.37-.65l2.25-1.32v0c.35-.21.81-.09 1.02.26 0 0 0 0 0 0Zm12.2 0v-.001c.2-.36.66-.48 1.02-.28 0 0 0 0 0 0l2.25 1.31V6.83c.23.13.37.38.37.64v2.25 0c0 .41-.34.75-.75.75 -.42 0-.75-.34-.75-.75v-.95l-1.13.65v0c-.36.21-.82.1-1.04-.25 -.22-.36-.11-.82.24-1.04 .01-.01.02-.02.03-.02l1.14-.665 -1.14-.665V6.77c-.36-.21-.48-.67-.27-1.03Zm-9 5.25v0c.2-.36.66-.48 1.02-.28 0 0 0 0 0 0l1.87 1.09 1.87-1.1v0c.35-.22.81-.11 1.03.24 .21.35.1.81-.25 1.03 -.02 0-.03.01-.04.01l-1.88 1.096v1.81 0c0 .41-.34.75-.75.75 -.42 0-.75-.34-.75-.75v-1.82l-1.88-1.1v-.001c-.36-.21-.48-.67-.27-1.03Zm-6.11 2.44v0c.41 0 .75.33.75.75v1.82l1.87 1.09v0c.36.19.49.65.29 1.01s-.66.49-1.02.29c-.02-.01-.03-.02-.04-.02l-2.25-1.32v0c-.24-.14-.38-.39-.38-.65v-2.25 0c0-.42.33-.75.75-.75Zm18 0v0c.41 0 .75.33.75.75v2.25 0c0 .26-.15.51-.38.64l-2.25 1.31v0c-.36.21-.82.1-1.04-.25 -.22-.36-.11-.82.24-1.04 .01-.01.02-.02.03-.02l1.87-1.096v-1.82 0c0-.42.33-.75.75-.75Zm-9 5.25v0c.41 0 .75.33.75.75v.94l1.12-.66h0c.35-.22.81-.11 1.03.24 .21.35.1.81-.25 1.03 -.02 0-.03.01-.04.01l-2.25 1.31v0c-.24.13-.53.13-.76 0l-2.25-1.32v0c-.37-.2-.5-.66-.3-1.02 .19-.37.65-.5 1.01-.3 .01 0 .02.01.03.01l1.12.65v-.95 0c0-.42.33-.75.75-.75Z"/></svg>
